X: 1
T: Glass Of Beer, The
M: 4/4
L: 1/8
R: reel
K: Bmin
|:fB (3BBB fBaB|fB (3BBB edce|fB (3BBB ~f3 e|1 dfaf e2 de:|2 dfaf e3 c||
|:dcde ~f3 e|defd edBA|dcde ~f3 e|1dfaf e3 c:|2 dfaf edba||
